X: 29
T: SCOTCH CAP
B: "FIFTY OLD ENGLISH FOLK DANCE AIRS", Edgar H. Hunt ed., Schott & Co. Ltd. pub., London 1939
Z: 2004-2014 John Chambers <jc:trillian.mit.edu>
M: 6/8
L: 1/8
K: Ddor
|:\
D2D d2d | (e2d) c2A |\
(B2d) (B2A) |1 B3 d3 :|2 B3 d2 \
|: (d/e/) | (f2A) A2(d/e/) |
(f2A) A2(d/e/) |\
(f2A) (A2F) | A3 d3 |\
B2B (A2F) | G2G d2d |\
B2B (AF2) |1 E3 D2 :|2 E3 D3 |]

%%sep 1 1 500
%%sep 1 1 500
